X:14
T:No.114 untitled reel
M:4/4
L:1/8
C:reel
K:G
B2BA B2ge|d2ge dBGA|B2BA B2ge|[1dBAc BGGA:|
[2dBAc BGGG||gfed edBd|gfed e3f|
gfed efge|agfe dfaf|gfed edBd|
gfed e3f|gbag fage|d2ge dBGA||
